X:1
T:The Jugment Day
T:The Jugment Day
T:Robert Elmer McNeill
T:Martin Wells Knapp, 1901
T:Public Domain Courtesy of the Cyber Hymnal™
T:Public Domain Courtesy of the Cyber Hymnal™
C:Robert Elmer McNeill
Z:Public Domain
Z:Courtesy of the Cyber Hymnal™
%%score ( 1 2 ) ( 3 4 )
L:1/8
Q:1/4=95
M:3/4
K:C
V:1 treble 
V:2 treble 
V:3 bass 
V:4 bass 
V:1
 [CE]>[DF] | [EG]3 [EG] [FA]>[EG] | [EG] [Ec]3 [CE]>[DF] | [EG]3 [EG] [DF]>[CE] | %4
w: 1.~Have you|heard of the ap-|point- ment which we|all must sure- ly|
w: 2.~Ev- ery|eye shall then be-|hold Him, see the|Judge up- on His|
w: 3.~Ev- ery|deed you have com-|mit- ted will ap-|pear be- fore the|
w: 4.~Oh, the|sol- emn, tra- gic|hor- rors of that|aw- ful day of|
w: 5.~Then the|dread- ed, aw- ful|sen- tence shall at|last from Him be|
 [B,D]4 [CE]>[DF] | [EG]3 [EG] [FA]>[EG] | G c3 [Ec]>[Ec] | [DB]>[Ec] [Fd]2 [FB]2 | %8
w: meet, When the|fin- al court as-|sem- bles, with the|Judge up- on His|
w: throne, And the|wick- ed quail be-|fore Him, all their|guilt com- pelled to|
w: throne, All your|in- ner, bid- den|se- crets then shall|cer- tain- ly be|
w: days, When the|earth shall be on|fi- re, and the|heav- ens all a-|
w: heard, With no|hope of a re-|vers- al; He can|ne- ver change His|
 [Ec]4 [Ec]>[GB] | [FA]3 [Ac] [GB]>[FA] | [EG] [Ec]2 z [Ec]>[Ec] | [Ec]3 [Ec] [FB]>[Ec] | %12
w: seat? You have|cer- tain- ly been|sum- moned, for the|Bi- ble tells me|
w: own; Once de-|rid- ed, now ex-|alt- ed, ev- ery|knee to Him shall|
w: known; All the|courts of Heav’n as-|sem- bled, what a|ga- th’ring that will|
w: blaze; When the|wick- ed, in their|fren- zy, on their|knees shall wail- ing|
w: word; “Curs- ed|souls, de- part for-|ev- er! to the|pun- ish- ment pre-|
 [Fd]4 [FG]>[FG] | [Ge]3 [Ge] [Ec]>[EG] | [FA] [Fc]3 [Fc]>[FA] | [EG]3 [Ec] [DB]>[Fd] | [Ec]4 || %17
w: so, And what-|ev- er your en-|gage- ments, you must|to the judg- ment|go.|
w: bow, Ma- ny|slight- ed, Christ re-|ject- ed, what a|fear- ful har- vest|now!|
w: be! If you|are not saved and|rea- dy, what a|dread- ful day for|thee!|
w: fall, And up-|on the rocks and|mount- ains, all in|vain for help shall|call.|
w: pared, For the|de- vil and his|an- gels,” aw- ful|doom, for- ev- er|shared.|
"^Refrain" [EG]>[EG] | [EG]2 [CE]2 [EG]>[DF] | [DF]2 [CE]2 [EG]>[EG] | [Ec] [Ec]3 [DB]>[Ec] | %21
w: ||||
w: ||||
w: Oh, the|weep- ing and the|wail- ing, as the|wick- ed turn a-|
w: ||||
w: ||||
 [Fd]4 [FG]>[FG] | [Ge]3 [Ge] [Ec]>[EG] | [FA] [Fc]3 [Fc]>[FA] | [EG]3 [Ec] [DB]>[Fd] | [Ec]4 |] %26
w: |||||
w: |||||
w: way To their|aw- ful doom e-|ter- nal, at the|fin- al judg- ment|day.|
w: |||||
w: |||||
V:2
 x2 | x6 | x6 | x6 | x6 | x6 | E4 x2 | x6 | x6 | x6 | x6 | x6 | x6 | x6 | x6 | x6 | x4 || x2 | x6 | %19
 x6 | x6 | x6 | x6 | x6 | x6 | x4 |] %26
V:3
 [C,G,]>[C,G,] | [C,C]3 [C,C] [C,C]>[C,C] | [C,C] [C,G,]3 [C,G,]>[C,G,] | %3
 [C,C]3 [C,C] [C,G,]>[C,G,] | [G,,G,]4 [C,G,]>[C,G,] | [C,C]3 [C,C] [C,C]>[C,C] | %6
 C G,3 [C,G,]>[C,G,] | [G,,G,]>[G,,G,] [G,,G,]2 [G,,G,]2 | [C,G,]4 [C,G,]>[E,C] | %9
 [F,C]3 [F,C] [F,C]>[F,C] | [C,C] [C,G,]2 z A,>A, | A,3 A, [G,D]>[G,C] | [G,B,]4 G,>G, | %13
 [C,C]3 [C,C] [C,G,]>[C,C] | [F,C] [F,A,]3 [F,A,]>[F,C] | [G,C]3 G, [G,,G,]>[G,,G,] | [C,G,]4 || %17
 [C,C]>[C,C] | [C,C]2 [C,G,]2 [C,G,]>[G,,G,] | [G,,G,]2 [C,G,]2 G,>G, | %20
 [C,G,] [C,G,]3 [G,,G,]>[G,,G,] | [G,,G,]4 G,>G, | [C,C]3 [C,C] [C,G,]>[C,C] | %23
 [F,C] [F,A,]3 [F,A,]>[F,C] | [G,C]3 G, [G,,G,]>[G,,G,] | [C,G,]4 |] %26
V:4
 x2 | x6 | x6 | x6 | x6 | x6 | C,4 x2 | x6 | x6 | x6 | x4 A,>A, | A,3 A, x2 | x4 G,>G, | x6 | x6 | %15
 x3 G, x2 | x4 || x2 | x6 | x4 G,>G, | x6 | x4 G,>G, | x6 | x6 | x3 G, x2 | x4 |] %26

